packages/ui-icons/svg/Line/peer-graded.svg

<svg viewBox="0 0 1920 1920" version="1.1" xmlns="http://www.w3.org/2000/svg">
    <path d="M716.582453,133 C929.35232,133 1102.43454,306.192467 1102.43454,518.85209 L1102.43454,518.85209 L1102.43454,629.095544 C1102.43454,745.843362 1049.2972,849.361966 967.055581,920.138264 C1026.69729,927.414332 1086.339,936.454295 1145.209,948.911805 C1312.00735,983.969224 1433.16491,1143.05053 1433.16491,1327.1571 L1433.16491,1327.1571 L1433.16491,1539.04502 L1410.67524,1555.47129 C1289.73817,1644.21727 1043.45429,1787.86449 715.700505,1787.86449 C698.392283,1787.86449 680.863574,1787.42352 663.114378,1786.65181 C374.386771,1773.09187 155.333027,1653.47772 22.3794212,1555.47129 L22.3794212,1555.47129 L0,1538.93477 L0,1327.04685 C0,1142.94028 121.2678,983.85898 288.286633,948.801562 C346.825907,936.454295 406.136886,926.973358 465.668351,919.807533 C383.647221,848.920992 330.730363,745.622876 330.730363,629.095544 L330.730363,629.095544 L330.730363,518.85209 C330.730363,306.192467 503.812586,133 716.582453,133 Z M1122.49885,1056.7299 C972.567754,1025.09003 818.337161,1010.97887 667.083142,1014.94763 C547.909968,1017.92421 428.075333,1032.03537 310.996785,1056.61966 C194.68994,1081.09371 110.243454,1194.86495 110.243454,1327.04685 L110.243454,1327.04685 L110.243454,1482.82085 C232.393202,1568.25953 422.783647,1664.94304 668.29582,1676.5186 C971.685806,1691.07074 1200.33073,1567.9288 1322.92145,1482.71061 L1322.92145,1482.71061 L1322.92145,1327.1571 C1322.92145,1194.86495 1238.58521,1081.20395 1122.49885,1056.7299 Z M625.080386,518.85209 C586.384933,518.85209 569.738172,534.17593 542.177308,559.531925 C518.474966,581.470372 488.268259,609.141479 440.973817,621.92972 L440.973817,621.92972 L440.973817,629.095544 C440.973817,781.121268 564.556729,904.70418 716.582453,904.70418 C868.608176,904.70418 992.191089,781.121268 992.191089,629.095544 L992.191089,629.095544 L992.191089,583.895728 C962.86633,607.157097 923.95039,629.095544 864.308682,629.095544 C782.618282,629.095544 738.741387,588.74644 706.660542,559.311438 C679.430409,534.065687 663.004134,518.85209 625.080386,518.85209 Z M1842.05788,307.658705 L1920,385.600827 L1488.28663,817.314194 L1252.91686,581.944419 L1330.85898,504.002297 L1488.28663,661.429949 L1842.05788,307.658705 Z M716.582453,243.243454 C571.28158,243.243454 453.100597,356.683969 442.958199,499.449242 C450.675241,493.496096 458.502526,486.771245 467.432246,478.502986 C499.513091,449.067983 543.389986,408.608636 625.080386,408.608636 C705.999081,408.608636 749.655489,448.847497 781.405604,478.172255 C808.966468,503.52825 825.613229,518.85209 864.308682,518.85209 C901.9017,518.85209 918.107487,503.748737 945.227377,478.723473 C956.251723,468.581075 968.047772,457.777216 981.71796,447.745062 C950.078089,330.335783 843.803399,243.243454 716.582453,243.243454 Z" stroke="none" stroke-width="1" fill-rule="evenodd"/>
</svg>

<svg viewBox="0 0 1920 1920" xmlns="http://www.w3.org/2000/svg">
    <path d="M716.582 133c212.77 0 385.853 173.192 385.853 385.852v110.244c0 116.747-53.138 220.266-135.38 291.042 59.642 7.276 119.284 16.316 178.154 28.774 166.798 35.057 287.956 194.139 287.956 378.245v211.888l-22.49 16.426c-120.937 88.746-367.22 232.393-694.974 232.393-17.309 0-34.837-.44-52.587-1.212-288.727-13.56-507.781-133.174-640.735-231.18L0 1538.934v-211.888c0-184.107 121.268-343.188 288.287-378.245 58.539-12.348 117.85-21.829 177.381-28.994-82.02-70.887-134.938-174.185-134.938-290.712V518.852C330.73 306.192 503.813 133 716.582 133Zm405.917 923.73c-149.931-31.64-304.162-45.751-455.416-41.782-119.173 2.976-239.008 17.087-356.086 41.672-116.307 24.474-200.754 138.245-200.754 270.427v155.774c122.15 85.439 312.54 182.122 558.053 193.698 303.39 14.552 532.035-108.59 654.625-193.808v-155.554c0-132.292-84.336-245.953-200.422-270.427ZM625.08 518.852c-38.695 0-55.342 15.324-82.903 40.68-23.702 21.938-53.909 49.61-101.203 62.398v7.166c0 152.025 123.583 275.608 275.608 275.608 152.026 0 275.61-123.583 275.61-275.608v-45.2c-29.326 23.261-68.242 45.2-127.883 45.2-81.69 0-125.568-40.35-157.648-69.785-27.23-25.245-43.657-40.459-81.58-40.459ZM1842.058 307.66 1920 385.6l-431.713 431.713-235.37-235.37 77.942-77.942 157.428 157.428 353.77-353.771ZM716.582 243.243c-145.3 0-263.481 113.441-273.624 256.206 7.717-5.953 15.545-12.678 24.474-20.946 32.081-29.435 75.958-69.894 157.648-69.894 80.92 0 124.575 40.238 156.326 69.563 27.56 25.356 44.207 40.68 82.903 40.68 37.593 0 53.798-15.103 80.918-40.129 11.025-10.142 22.82-20.946 36.491-30.978-31.64-117.41-137.915-204.502-265.136-204.502Z" fill-rule="evenodd"/>
</svg>
